X:12403
T:Corriechoillie's Welcome to the Northern Meeting
B: Scot's Guard
C:Pipe Major W Ross
H:
O:Kevin Fraser
Z:Kevin Fraser
Q:1/4=90
K:HP
M:2/4
L:1/8
R:March
U: R = ///
U: r = //
U: V = !accent!
V:M gstem=up stem=down name="Melody" sname="Melody" 
V:H gstem=up stem=down name="Harmony" sname="Harmony"
V:C gstem=up stem=down name="C-Harmony" sname="C-Harmony"
V:S gstem=up stem=down dyn=up stafflines=1 clef=perc middle=G name="Snare" sname="Snare"" sname=snare
V:B gstem=up stem=down clef=none dyn=up name="Bass" sname="Bass"
V:T gstem=up stem=down clef=none dyn=up name="Tenor" sname="Tenor"
I:MIDI=program 110
%%MIDI gracedivider 4
%%score {M}
%%MIDI program 109 #bagpipes
%%MIDI vol 100
[V:M]|:    e     |"D" {g}A>B {G}A{Gdc}d |"E" {gef}e>d {gBd}B{G}A |"D" {Gdc}d>e {g}fa |"E" {fg}fe {A}ef |
[V:M]             |"D" {g}A>B {G}A{Gdc}d |"E" {gef}e>d {gBd}B{G}A |"D" {Gde}d>e {g}fa |"D" {fg}fd {gdc}d :| 
[V:M]|:   {gf}g   |"D" {ag}a>f {Gdc}df   |"E" {gef}e>d {gBd}B{G}A |"D" {Gde}d>e {g}fa |"E" {fg}fe {A}e[1{gf}g [2f |
[V:M][1           |"D" {ag}a>f {Gdc}df   |"E" {gef}e>d {gBd}B{G}A |"D" {Gde}d>e {g}fa |"D" {fg}fd {gdc}d :|
[V:M][2           |"D" {g}A>B {G}A{Gdc}d |"E" {gef}e>d {gBd}B{G}A |"D" {Gde}d>e {g}fa |"D" {fg}fd {gdc}d || 



